Origami/24x24/apps/riot-web.svg

<svg width="24" height="24" version="1.1" viewBox="0 0 24 24" xmlns="http://www.w3.org/2000/svg">
 <path d="m6.5 2.5a2.5 2.5 0 0 0 -2.5 2.5 2.5 2.5 0 0 0 2.5 2.5 2.5 2.5 0 0 0 2.5 -2.5 2.5 2.5 0 0 0 -2.5 -2.5zm2.4385 0c0.6529 0.6372 1.0615 1.5239 1.0615 2.5 0 1.9212-1.5788 3.5-3.5 3.5-0.9761 0-1.8628-0.4086-2.5-1.0615v12.562c0 1.5 1 2.5 2.5176 2.5 1.4824 0 2.4824-1 2.4824-2.5v-3.5h1.7041l-1.0009-1.401c-0.4547-0.605-0.7017-1.341-0.7031-2.097v-2e-3c0-1.9212 1.5788-3.5 3.5-3.5h1e-3c1.1003 0.0015 2.1385 0.52146 2.7979 1.4023l0.0127 0.01856 2.6436 3.7021c1.306-1.339 2.044-3.229 2.045-5.123-2e-3 -3.5-2.5-7-6.5-7zm3.5615 8c-1.3807 0-2.5 1.1193-2.5 2.5 1e-3 0.54048 0.1771 1.0661 0.50195 1.498l5 7c0.471 0.63 1.211 1.001 1.998 1.002 1.381 0 2.5-1.119 2.5-2.5-1e-3 -0.54-0.177-1.066-0.502-1.498l-5-7c-0.471-0.63-1.211-1.001-1.998-1.002z" style="opacity:.2"/>
 <path d="m8.9385 2c0.6529 0.6372 1.0615 1.5239 1.0615 2.5 0 1.9212-1.5788 3.5-3.5 3.5-0.9761 0-1.8628-0.4086-2.5-1.0615v12.562c0 1.5 1 2.5 2.5176 2.5 1.4824 0 2.4824-1 2.4824-2.5v-3.5h1.7041l-1.0009-1.401c-0.4547-0.605-0.7017-1.341-0.7031-2.097v-2e-3c0-1.921 1.579-3.5 3.5-3.5h1e-3c1.1003 0.0015 2.1385 0.52146 2.7979 1.4023l0.0127 0.01856 2.6436 3.7021c1.306-1.339 2.044-3.229 2.045-5.123-2e-3 -3.5-2.5-7-6.5-7z" style="fill:#3eb07b"/>
 <circle cx="6.5" cy="4.5" r="2.5" style="fill:#764d80"/>
 <path d="m12.5 10c-1.3807 0-2.5 1.1193-2.5 2.5 1e-3 0.54048 0.1771 1.0661 0.50195 1.498l5 7c0.471 0.63 1.211 1.001 1.998 1.002 1.381 0 2.5-1.119 2.5-2.5-1e-3 -0.54-0.177-1.066-0.502-1.498l-5-7c-0.471-0.63-1.211-1.001-1.998-1.002z" style="fill:#764d80"/>
 <path d="m8.9394531 2c0.1565816 0.1528164 0.295662 0.3206916 0.421875 0.5h4.1386719c3.899554 0 6.364734 3.3263696 6.488281 6.7363281 0.002589-0.0788632 0.011677-0.1574114 0.011719-0.2363281-2e-3 -3.5-2.5-7-6.5-7h-4.5605469zm1.0351563 2.7519531c-0.1330463 1.8031748-1.6396827 3.2480469-3.4746094 3.2480469-0.9761 0-1.8628-0.4076469-2.5-1.0605469v0.4980469c0.6372 0.6529 1.5239 1.0625 2.5 1.0625 1.9212 0 3.5-1.5788 3.5-3.5 0-0.084892-0.0193175-0.1646126-0.0253906-0.2480469zm-0.9511719 8.0253909c-0.0049005 0.075113-0.0234375 0.146388-0.0234375 0.222656v0.001953c0.0014 0.756 0.248425 1.492656 0.703125 2.097656l0.642578 0.900391h0.357422l-1-1.400391c-0.3990384-0.530939-0.6261883-1.164567-0.6796875-1.822265z" style="fill:#ffffff;opacity:.1"/>
 <path d="M 6.5 2 A 2.5 2.5 0 0 0 4 4.5 A 2.5 2.5 0 0 0 4.0136719 4.7382812 A 2.5 2.5 0 0 1 6.5 2.5 A 2.5 2.5 0 0 1 8.9863281 4.7617188 A 2.5 2.5 0 0 0 9 4.5 A 2.5 2.5 0 0 0 6.5 2 z" style="fill:#ffffff;opacity:.1"/>
 <path d="m12.5 10c-1.3807 0-2.5 1.1193-2.5 2.5 1.71e-4 0.092298 0.013185 0.182399 0.023438 0.273438 0.116212-1.272786 1.17348-2.273438 2.476562-2.273438 0.787 1e-3 1.527047 0.371953 1.998047 1.001953l5 7c0.269375 0.358062 0.428667 0.780993 0.478515 1.222656 0.006805-0.075196 0.023438-0.147636 0.023438-0.224609-1e-3 -0.54-0.176953-1.066047-0.501953-1.498047l-5-7c-0.471-0.63-1.211047-1.000953-1.998047-1.001953z" style="fill:#ffffff;opacity:.1"/>
</svg>

<svg xmlns="http://www.w3.org/2000/svg" width="24" height="24" version="1.1" viewBox="0 0 24 24">
 <path style="opacity:.2" d="m6.5 2.5a2.5 2.5 0 0 0 -2.5 2.5 2.5 2.5 0 0 0 2.5 2.5 2.5 2.5 0 0 0 2.5 -2.5 2.5 2.5 0 0 0 -2.5 -2.5zm2.4385 0c0.6529 0.6372 1.0615 1.5239 1.0615 2.5 0 1.9212-1.5788 3.5-3.5 3.5-0.9761 0-1.8628-0.4086-2.5-1.0615v12.562c0 1.5 1 2.5 2.5176 2.5 1.4824 0 2.4824-1 2.4824-2.5v-3.5h1.7041l-1.0009-1.401c-0.4547-0.605-0.7017-1.341-0.7031-2.097v-0.002c0-1.9212 1.5788-3.5 3.5-3.5h0.001c1.1003 0.0015 2.1385 0.52146 2.7979 1.4023l0.0127 0.01856 2.6436 3.7021c1.306-1.339 2.044-3.229 2.045-5.123-0.002-3.5-2.5-7-6.5-7zm3.5615 8c-1.3807 0-2.5 1.1193-2.5 2.5 0.001 0.54048 0.1771 1.0661 0.50195 1.498l5 7c0.471 0.63 1.211 1.001 1.998 1.002 1.381 0 2.5-1.119 2.5-2.5-0.001-0.54-0.177-1.066-0.502-1.498l-5-7c-0.471-0.63-1.211-1.001-1.998-1.002z"/>
 <path style="fill:#3eb07b" d="m8.9385 2c0.6529 0.6372 1.0615 1.5239 1.0615 2.5 0 1.9212-1.5788 3.5-3.5 3.5-0.9761 0-1.8628-0.4086-2.5-1.0615v12.562c0 1.5 1 2.5 2.5176 2.5 1.4824 0 2.4824-1 2.4824-2.5v-3.5h1.7041l-1.0009-1.401c-0.4547-0.605-0.7017-1.341-0.7031-2.097v-0.002c0-1.921 1.579-3.5 3.5-3.5h0.001c1.1003 0.0015 2.1385 0.52146 2.7979 1.4023l0.0127 0.01856 2.6436 3.7021c1.306-1.339 2.044-3.229 2.045-5.123-0.002-3.5-2.5-7-6.5-7z"/>
 <circle style="fill:#764d80" cx="6.5" cy="4.5" r="2.5"/>
 <path style="fill:#764d80" d="m12.5 10c-1.3807 0-2.5 1.1193-2.5 2.5 0.001 0.54048 0.1771 1.0661 0.50195 1.498l5 7c0.471 0.63 1.211 1.001 1.998 1.002 1.381 0 2.5-1.119 2.5-2.5-0.001-0.54-0.177-1.066-0.502-1.498l-5-7c-0.471-0.63-1.211-1.001-1.998-1.002z"/>
 <path style="fill:#ffffff;opacity:0.1" d="M 8.9394531 2 C 9.0960347 2.1528164 9.2351151 2.3206916 9.3613281 2.5 L 13.5 2.5 C 17.399554 2.5 19.864734 5.8263696 19.988281 9.2363281 C 19.99087 9.1574649 19.999958 9.0789167 20 9 C 19.998 5.5 17.5 2 13.5 2 L 8.9394531 2 z M 9.9746094 4.7519531 C 9.8415631 6.5551279 8.3349267 8 6.5 8 C 5.5239 8 4.6372 7.5923531 4 6.9394531 L 4 7.4375 C 4.6372 8.0904 5.5239 8.5 6.5 8.5 C 8.4212 8.5 10 6.9212 10 5 C 10 4.915108 9.9806825 4.8353874 9.9746094 4.7519531 z M 9.0234375 12.777344 C 9.018537 12.852457 9 12.923732 9 13 L 9 13.001953 C 9.0014 13.757953 9.248425 14.494609 9.703125 15.099609 L 10.345703 16 L 10.703125 16 L 9.703125 14.599609 C 9.3040866 14.06867 9.0769367 13.435042 9.0234375 12.777344 z"/>
 <path style="fill:#ffffff;opacity:0.1" d="M 6.5 2 A 2.5 2.5 0 0 0 4 4.5 A 2.5 2.5 0 0 0 4.0136719 4.7382812 A 2.5 2.5 0 0 1 6.5 2.5 A 2.5 2.5 0 0 1 8.9863281 4.7617188 A 2.5 2.5 0 0 0 9 4.5 A 2.5 2.5 0 0 0 6.5 2 z"/>
 <path style="fill:#ffffff;opacity:0.1" d="M 12.5 10 C 11.1193 10 10 11.1193 10 12.5 C 10.000171 12.592298 10.013185 12.682399 10.023438 12.773438 C 10.13965 11.500652 11.196918 10.5 12.5 10.5 C 13.287 10.501 14.027047 10.871953 14.498047 11.501953 L 19.498047 18.501953 C 19.767422 18.860015 19.926714 19.282946 19.976562 19.724609 C 19.983367 19.649413 20 19.576973 20 19.5 C 19.999 18.96 19.823047 18.433953 19.498047 18.001953 L 14.498047 11.001953 C 14.027047 10.371953 13.287 10.001 12.5 10 z"/>
</svg>
